src/animals-nature/animal-bird/1F424.svg

<svg id="emoji" viewBox="0 0 72 72" xmlns="http://www.w3.org/2000/svg">
  <g id="grid">
    <path fill="#b3b3b3" d="M68,4V68H4V4H68m4-4H0V72H72V0Z"/>
    <path fill="none" stroke="#00a5ff" stroke-miterlimit="10" stroke-width="0.1" d="M12.923,10.9583H59.0769A1.9231,1.9231,0,0,1,61,12.8814V59.0352a1.9231,1.9231,0,0,1-1.9231,1.9231H12.9231A1.9231,1.9231,0,0,1,11,59.0352V12.8813A1.923,1.923,0,0,1,12.923,10.9583Z"/>
    <rect x="16" y="4" rx="2.2537" width="40" height="64" fill="none" stroke="#00a5ff" stroke-miterlimit="10" stroke-width="0.1"/>
    <rect x="16" y="4" rx="2.2537" width="40" height="64" transform="translate(72) rotate(90)" fill="none" stroke="#00a5ff" stroke-miterlimit="10" stroke-width="0.1"/>
    <circle cx="36" cy="36" r="29" fill="none" stroke="#00a5ff" stroke-miterlimit="10" stroke-width="0.1"/>
  </g>
  <g id="color">
    <path fill="#FCEA2B" stroke="#FCEA2B" stroke-miterlimit="10" stroke-width="2" d="M51.989,51.91 C63,43,53.7604,34.196,53.7604,34.196c0-13.0876-10.032-17.4726-15.2722-18.8704c-1.9297-0.5147-3.9633-0.5083-5.88,0.053 C17.1418,19.9076,18.3325,34.196,18.3325,34.196C10,44,19.4396,51.4671,19.4396,51.4671S36.0464,66.0812,51.989,51.91"/>
    <path fill="#F1B31C" stroke="none" d="M36.7052,38.8074c0,0,10.4746-0.5149,0,9.2687C36.7052,48.076,26.2306,38.8074,36.7052,38.8074z"/>
  </g>
  <g id="hair"/>
  <g id="skin"/>
  <g id="skin-shadow"/>
  <g id="line">
    <line x1="31.3965" x2="26.968" y1="15.5963" y2="12.2749" fill="none" stroke="#000000" stroke-linecap="round" stroke-linejoin="round" stroke-miterlimit="10" stroke-width="2"/>
    <line x1="34.0536" x2="32.2822" y1="14.4892" y2="10.725" fill="none" stroke="#000000" stroke-linecap="round" stroke-linejoin="round" stroke-miterlimit="10" stroke-width="2"/>
    <line x1="37.5964" x2="37.8178" y1="15.1534" y2="9.3964" fill="none" stroke="#000000" stroke-linecap="round" stroke-linejoin="round" stroke-miterlimit="10" stroke-width="2"/>
    <circle cx="28.9608" cy="32.4246" r="3" fill="#000000" stroke="none"/>
    <circle cx="44" cy="32" r="3" fill="#000000" stroke="none"/>
    <path fill="none" stroke="#000000" stroke-linecap="round" stroke-linejoin="round" stroke-miterlimit="10" stroke-width="2" d="M51.989,51.91C63,43,53.7604,34.196,53.7604,34.196c0-13.0876-10.032-17.4726-15.2722-18.8704 c-1.9297-0.5147-3.9633-0.5083-5.88,0.053C17.1418,19.9076,18.3325,34.196,18.3325,34.196C10,44,19.4396,51.4671,19.4396,51.4671 S36.0464,66.0812,51.989,51.91"/>
    <path fill="none" stroke="#000000" stroke-linecap="round" stroke-linejoin="round" stroke-miterlimit="10" stroke-width="2" d="M36.7052,38.8074c0,0,10.4746-0.5149,0,9.2687C36.7052,48.076,26.2306,38.8074,36.7052,38.8074z"/>
  </g>
</svg>

<svg viewBox="0 0 72 72" xmlns="http://www.w3.org/2000/svg"><path fill="#b3b3b3" d="M68 4v64H4V4h64m4-4H0v72h72V0z"/><path fill="none" stroke="#00a5ff" stroke-miterlimit="10" stroke-width=".1" d="M12.923 10.958h46.154A1.923 1.923 0 0161 12.881v46.154a1.923 1.923 0 01-1.923 1.923H12.923A1.923 1.923 0 0111 59.035V12.881a1.923 1.923 0 011.923-1.923z"/><rect x="16" y="4" rx="2.254" width="40" height="64" fill="none" stroke="#00a5ff" stroke-miterlimit="10" stroke-width=".1"/><rect x="16" y="4" rx="2.254" width="40" height="64" transform="rotate(90 36 36)" fill="none" stroke="#00a5ff" stroke-miterlimit="10" stroke-width=".1"/><circle cx="36" cy="36" r="29" fill="none" stroke="#00a5ff" stroke-miterlimit="10" stroke-width=".1"/><g stroke-linecap="round" stroke-miterlimit="10" stroke-width="6" stroke="#fff" fill="none" stroke-linejoin="round"><path d="M31.396 15.596l-4.428-3.321m7.086 2.214l-1.772-3.764m5.314 4.428l.222-5.757"/><circle cx="28.961" cy="32.425" r="3"/><circle cx="44" cy="32" r="3"/><path d="M51.989 51.91C63 43 53.76 34.196 53.76 34.196c0-13.088-10.032-17.473-15.272-18.87a10.913 10.913 0 00-5.88.053c-15.466 4.529-14.275 18.817-14.275 18.817C10 44 19.44 51.467 19.44 51.467s16.606 14.614 32.549.443"/><path d="M36.705 38.807s10.475-.515 0 9.27c0-.001-10.474-9.27 0-9.27z"/></g><path fill="#FCEA2B" stroke="#FCEA2B" stroke-miterlimit="10" stroke-width="2" d="M51.989 51.91C63 43 53.76 34.196 53.76 34.196c0-13.088-10.032-17.473-15.272-18.87a10.913 10.913 0 00-5.88.053c-15.466 4.529-14.275 18.817-14.275 18.817C10 44 19.44 51.467 19.44 51.467s16.606 14.614 32.549.443"/><path fill="#F1B31C" d="M36.705 38.807s10.475-.515 0 9.27c0-.001-10.474-9.27 0-9.27z"/><path fill="none" stroke="#000" stroke-linecap="round" stroke-linejoin="round" stroke-miterlimit="10" stroke-width="2" d="M31.396 15.596l-4.428-3.321m7.086 2.214l-1.772-3.764m5.314 4.428l.222-5.757"/><circle cx="28.961" cy="32.425" r="3"/><circle cx="44" cy="32" r="3"/><path fill="none" stroke="#000" stroke-linecap="round" stroke-linejoin="round" stroke-miterlimit="10" stroke-width="2" d="M51.989 51.91C63 43 53.76 34.196 53.76 34.196c0-13.088-10.032-17.473-15.272-18.87a10.913 10.913 0 00-5.88.053c-15.466 4.529-14.275 18.817-14.275 18.817C10 44 19.44 51.467 19.44 51.467s16.606 14.614 32.549.443"/><path fill="none" stroke="#000" stroke-linecap="round" stroke-linejoin="round" stroke-miterlimit="10" stroke-width="2" d="M36.705 38.807s10.475-.515 0 9.27c0-.001-10.474-9.27 0-9.27z"/></svg>
